!!!!SEGMENT: pl-wnifc--13846--159_anonim--piesni-polskie-i-ruskie-ludu-galicyjskiego-159-w-czystym-polu.krn
!!!cenid: 18xx:3381
!!!COM: Anonim
!!!COM-rismID: pe30004985
!!!CDT:
!!!CNT:
!!!GTL: Pieśni polskie i ruskie ludu galicyjskiego
!!!OTL: 159. W czystym polu
!!!PDT: 1833
!!!AGN:
!!!SMS-siglum: PL-Wnifc
!!!SMS-shelfmark: 13846
!!!SMS-shelfwork: 159 G
!!!SMS-variant:
!!!SMS-altvar:
!!!NIFC-rismSourceID: 1001039694
!!!NIFC-rismChildID: 1001039694
!!!NIFC-islandoraID:
!!!URL-pdf-islandora:
!!!URL-scan:
!!!ONB-nifc:
!!!OMD: Andante
!!!AIN: 2 piano 1 vox
!!!key: B-
**kern	**kern	**dynam	**kern	**text
*part3	*part2	*part2	*part1	*part1
*group2	*group2	*	*group1	*group1
*staff3	*staff2	*	*staff1	*staff1
*I"[FORTEPIAN.]	*I"[FORTEPIAN.]	*	*I"[GŁOS.]	*
*I'	*I'	*	*I'	*
*Ipiano	*Ipiano	*	*Ivox	*
*ICklav	*ICklav	*	*ICvox	*
*IGacmp	*IGacmp	*	*IGsolo	*
*clefF4	*clefG2	*	*clefG2	*
*k[e-b-]	*k[e-b-]	*	*k[e-b-]	*
*B-:	*B-:	*	*B-:	*
*M2/4	*M2/4	*	*M2/4	*
*>[A,B,B]	*>[A,B,B]	*>[A,B,B]	*>[A,B,B]	*>[A,B,B]
=1	=1	=1	=1	=1
*>A	*>A	*>A	*>A	*>A
!!LO:TX:t=P:problem:tekst: Pieśni polskie i ruskie ludu galicyjskiego, s. 479.
!LO:TX:t=P:problem:mixed beam	!	!	!LO:TX:a:B:t=A.A.1.	!
(16BBB-`/LL	[8ffL 8dd\	.	[8ff\L	W czy-
!	!	!LO:HP:b=2	!	!
16D\	.	>	.	.
16F\	8ff]J 8dd^<\	]	8ff^\J]	.
16B-\JJ)	.	.	.	.
!LO:TX:t=P:problem:mixed beam	!	!	!	!
(16BBB-`/LL	[8ggL 8ee-\	]	[8gg\L	-stym
!	!	!LO:HP:b=2	!	!
16E-\	.	>	.	.
16G\	8gg]J 8ee-^<\	]	8gg^\J]	.
16B-\JJ)	.	.	.	.
=2	=2	=2	=2	=2
*	*^	*	*	*
(16BB-\LL	(<8.ffL/	4dd 4f^\	.	(8.ff\L	po-
16D\	.	.	.	.	.
16F\	.	.	.	.	.
16A`\JJ)	16ee-Jk 16cc/)	.	.	16ee-\Jk)	.
16B-\LL	4dd/	4b- 4f^\	.	4dd\	-lu,
(16B-\	.	.	.	.	.
16F\	.	.	.	.	.
16B-\JJ)	.	.	.	.	.
*	*v	*v	*	*	*
!!linebreak:original
=3	=3	=3	=3	=3
*^	*	*	*	*
!	!LO:TX:t=P:problem:4\right	!	!	!	!
(<16BB-/LL	4BB-\	16ffKL 16dd\	.	16ff\	pry
16D/	.	8.ffJ 8.dd\	sf	8.ff\	ty-
16F/	.	.	.	.	.
16B-/JJ)	.	.	.	.	.
!	!LO:TX:t=P:problem:4\right	!	!	!	!
(<16BB-/LL	4BB-\	16ggKL 16ee-\	.	16gg\	-chym
16E-/	.	8.ggJ 8.ee-\	sf	8.gg\	du-
16G/	.	.	.	.	.
16B-/JJ)	.	.	.	.	.
=4	=4	=4	=4	=4	=4
!	!LO:TX:t=P:problem:4\right	!	!	!	!
(<16BB-/LL	4BB-\	(8.ffL 8.dd\	.	(8.ff\L	-na-
16D/	.	.	.	.	.
16F/	.	.	.	.	.
16B-/JJ)	.	16ee-Jk 16cc\)	.	16ee-\Jk)	.
16B-`\LL	4ryy	4dd 4b-\	.	4dd\	-ju,
(16F\	.	.	.	.	.
16D\	.	.	.	.	.
16F\JJ)	.	.	.	.	.
*v	*v	*	*	*	*
!!linebreak:original
=5!|:	=5!|:	=5!|:	=5!|:	=5!|:
*>B	*>B	*>B	*>B	*>B
!LO:TX:t=P:problem:mixed beam	!	!	!	!
16BB-\LL	8.ddL 8.b-\	.	8.dd\	kryk-
16F\	.	.	.	.
16FF/	.	.	.	.
16F\JJ	16ccJk 16a\	.	16cc\	-nuw
16BB-\LL	8ddL 8b-\	.	8dd\	ko-
16B-\	.	.	.	.
16BB-\	8ee-J 8cc\	.	8ee-\	-zak
16B-\JJ	.	.	.	.
=6	=6	=6	=6	=6
*^	*	*	*	*
!	!LO:TX:t=P:problem:4\right	!	!	!	!
(<16BB-/LL	4BB-^\	8ffL 8dd\	.	8ff\	na
!	!	!	!LO:HP:b=2	!	!
16D/	.	.	>	.	.
16F/	.	8ffJ 8dd\	]	8ff\	Ny-
16B-/JJ)	.	.	.	.	.
(16EE-^/LL	4ryy	(8ggL 8ee-\	>]	8gg\	-cza-
!	!	!	!LO:HP:b=2	!	!
16GG/	.	.	>	.	.
16BB-/	.	(16ffL 16dd\	]	(16ff\LL	-ja:
16E-/JJ)	.	16ee-JJ 16cc\))	]	16ee-\JJ)	.
!!linebreak:original
=7	=7	=7	=7	=7	=7
*	*	*^	*	*	*
!	!LO:TX:t=P:problem:4\right	!	!	!	!	!
(<16FF/LL	4FF\	16ddKL 16b-\	4ryy	.	16dd\	wti-
16BB-/	.	8.ddJ 8.b-\	.	sf	8.dd\	-kaj-
16D/	.	.	.	.	.	.
16F/JJ)	.	.	.	.	.	.
(16FF^/LL	4ryy	8ccL 8f/	8e-\L	.	8cc\	-mo
16AA/	.	.	.	.	.	.
16C/	.	16ccL (<16f/	8e-\J	.	(16cc\LL	Ny-
16F/JJ)	.	16a/JJ)	.	.	16a\JJ)	.
*	*	*v	*v	*	*	*
=8	=8	=8	=8	=8	=8
(16BB-^\LL	4BB-/	4b- 4d/	.	4b-\	-cza-
16D\	.	.	.	.	.
16F^<\	.	.	.	.	.
16B-\JJ)	.	.	.	.	.
8BBB-`>/	4ryy	8b- 8d/	.	8b-\	-ju.
8r	.	8r	.	8r	.
*v	*v	*	*	*	*
=:|!	=:|!	=:|!	=:|!	=:|!
*-	*-	*-	*-	*-
!!!system-decoration: g1{(g2)}
!!!RDF**kern: > = above
!!!RDF**kern: < = below
!!!RDF**kern: | = vertical stroke
!!!ENC: Katarzyna Serwa
!!!END: 2021-11-12
!!!ENC: Anastazja Marusiak
!!!END: 2021-11-10
!!!YEC: Copyright 2022 Narodowy Instytut Fryderyka Chopina (https://polishscores.org)
!!!YEM: License CC-BY-4.0 (https://creativecommons.org/licenses/by/4.0)
